packages/devextreme-scss/images/icons/generic/cardcontent.svg

<svg width="18" height="18" viewBox="0 0 18 18" fill="none" xmlns="http://www.w3.org/2000/svg">
<path d="M4 11H9V6H4V11Z" fill="black"/>
<path d="M14 7H10V6H14V7Z" fill="black"/>
<path fill-rule="evenodd" clip-rule="evenodd" d="M16 2C16.5523 2 17 2.44772 17 3V14C17 14.5523 16.5523 15 16 15H2C1.44772 15 1 14.5523 1 14V3C1 2.44772 1.44772 2 2 2H16ZM15 4H3V13H15V4Z" fill="black"/>
<path d="M14 9H10V8H14V9Z" fill="black"/>
<path d="M14 11H10V10H14V11Z" fill="black"/>
</svg>

<!-- Generated by IcoMoon.io -->
<svg version="1.1" xmlns="http://www.w3.org/2000/svg" width="18" height="18" viewBox="0 0 18 18">
<path d="M4 11h5v-5h-5v5z"></path>
<path d="M14 7h-4v-1h4v1z"></path>
<path d="M16 2c0.552 0 1 0.448 1 1v11c0 0.552-0.448 1-1 1h-14c-0.552 0-1-0.448-1-1v-11c0-0.552 0.448-1 1-1h14zM15 4h-12v9h12v-9z"></path>
<path d="M14 9h-4v-1h4v1z"></path>
<path d="M14 11h-4v-1h4v1z"></path>
</svg>
